X: 1
T:Atholl Highlanders
M:6/8
K:A
"A"e3 ecA|"A"ecA "E"Bcd|"A"e3 ecA|"E"Bcd cBA|
"A"e3 ecA|"A"ecA "E"Bcd|"A"eae "D"fed|"E7"cdB "A"A3:|
|:"A"Ace Ace|"D"Adf Adf|"A"Ace Ace|"E"Bcd c2B|
"A"Ace Ace|"D"Adf Adf|"A"eae "D"fed|"E7"cdB "A"A3:|
|:"A"a2e edc|"A"a2e edc|"A"a2e edc|"E"Bcd efg|
"A"a2e edc|"A"a2e edc|"A"eae "D"fed|"E7"cdB "A"A3:|
|:"A"cAc cAc|"D"dBd dBd|"A"cAc cAc|"G"B=GB BGB|
"A"cAc cAc|"D"dBd dBd|"A"eae "D"fed|"E7"cdB "A"A3:|
